X:1
T: Rose Tree, The
C: Traditional, Britain, Ireland, North America
R: Polka
M: 4/4
L: 1/8
K: D
fe|"D"d2B2 A2F2|"D"ABAF A2A2|"D"d2cd "A"e2de|"D"f2e2 "A"e2|
fe|"D"d2B2 A2F2|"D"ABAF A2A2|"D"d2cd "A"e2de|"D"f2d2 d2:|
ze|"D"f2>e2 f2g2|"D"a4 g2f2|"Em"e2b2 b2>a2|"Em"b2e2 e2|
fe|"D"d2B2 A2F2|"D"ABAF A2A2|"D"d2cd "A"e2de|"D"f2d2 d2:|